X: 42955
T: Willie Clancy's
R: reel
M: 4/4
K: Adorian
AG|EAAB c3A|BG G2 BGAG|EAAB cdef|(3gfe dB BAAG|
EAAB cedc|BG G2 BGAG|EAAB cdef|(3gfe dB BAAG|
EAAB cedc|BG G2 BGAG|EAAB cdef|(3gfe dB BAAG|
EAAB cA A2|BG G2 cAAG|EAAB cBce|dBGA BAAg||
|:ea a2 aged|(3Bcd ef g2 dg|eaag agef|(3gfe dB BAAg|
ea a2 aged|(3Bcd ef g2 fg|af (3gfe fdef|1 (3gfe dB BAAg:|2 (3gfe dB BAAG||

